docs/.gitbook/assets/icon-american-football-16@light.svg

<svg width="32" height="32" viewBox="0 0 16 16" fill="none" xmlns="http://www.w3.org/2000/svg">
<rect x="0" y="0" width="16" height="16" fill="#fff"/>
<path fill-rule="evenodd" clip-rule="evenodd" d="M9.75 2.5C5.74594 2.5 2.5 5.74594 2.5 9.75V10.25C4.29492 10.25 5.75 11.7051 5.75 13.5H6.25C10.2541 13.5 13.5 10.2541 13.5 6.25V6H13.25C11.4551 6 10 4.54493 10 2.75V2.5H9.75ZM11.5 2.5V2.75C11.5 3.7165 12.2835 4.5 13.25 4.5H13.5V2.75C13.5 2.61193 13.3881 2.5 13.25 2.5H11.5ZM4.25 13.5C4.25 12.5335 3.4665 11.75 2.5 11.75V13.25C2.5 13.3881 2.61193 13.5 2.75 13.5H4.25ZM1 9.75C1 4.91751 4.91751 1 9.75 1H13.25C14.2165 1 15 1.7835 15 2.75V6.25C15 11.0825 11.0825 15 6.25 15H5H2.75C1.7835 15 1 14.2165 1 13.25V11V9.75ZM8.21967 5.21967C8.51256 4.92678 8.98744 4.92678 9.28033 5.21967L10.7803 6.71967C11.0732 7.01256 11.0732 7.48744 10.7803 7.78033C10.4874 8.07322 10.0126 8.07322 9.71967 7.78033L9.5 7.56066L7.56066 9.5L7.78033 9.71967C8.07322 10.0126 8.07322 10.4874 7.78033 10.7803C7.48744 11.0732 7.01256 11.0732 6.71967 10.7803L5.21967 9.28033C4.92678 8.98744 4.92678 8.51256 5.21967 8.21967C5.51256 7.92678 5.98744 7.92678 6.28033 8.21967L6.5 8.43934L8.43934 6.5L8.21967 6.28033C7.92678 5.98744 7.92678 5.51256 8.21967 5.21967Z" fill="#000"/>
</svg>

<svg xmlns="http://www.w3.org/2000/svg" width="32" height="32" fill="none" viewBox="0 0 16 16"><path fill="#fff" d="M0 0h16v16H0z"/><path fill="#000" fill-rule="evenodd" d="M9.75 2.5A7.25 7.25 0 0 0 2.5 9.75v.5a3.25 3.25 0 0 1 3.25 3.25h.5a7.25 7.25 0 0 0 7.25-7.25V6h-.25A3.25 3.25 0 0 1 10 2.75V2.5zm1.75 0v.25c0 .966.784 1.75 1.75 1.75h.25V2.75a.25.25 0 0 0-.25-.25zm-7.25 11a1.75 1.75 0 0 0-1.75-1.75v1.5c0 .138.112.25.25.25zM1 9.75A8.75 8.75 0 0 1 9.75 1h3.5c.966 0 1.75.784 1.75 1.75v3.5A8.75 8.75 0 0 1 6.25 15h-3.5A1.75 1.75 0 0 1 1 13.25zm7.22-4.53a.75.75 0 0 1 1.06 0l1.5 1.5a.75.75 0 1 1-1.06 1.06l-.22-.22L7.56 9.5l.22.22a.75.75 0 1 1-1.06 1.06l-1.5-1.5a.75.75 0 0 1 1.06-1.06l.22.22L8.44 6.5l-.22-.22a.75.75 0 0 1 0-1.06" clip-rule="evenodd"/></svg>
